svg/u1f31d.svg

<svg viewBox="0 0 128 128" xmlns="http://www.w3.org/2000/svg">
  <g>
    <radialGradient id="SVGID_1_" cx="63.5497" cy="56.074" gradientUnits="userSpaceOnUse" r="68.6716">
      <stop offset="0.2994" stop-color="#FFF7B3"/>
      <stop offset="0.3995" stop-color="#FFF5A9"/>
      <stop offset="0.5678" stop-color="#FFF08F"/>
      <stop offset="0.7823" stop-color="#FFE865"/>
      <stop offset="0.8426" stop-color="#FFE558"/>
      <stop offset="1" stop-color="#FBC02D"/>
    </radialGradient>
    <circle cx="64" cy="64" fill="url(#SVGID_1_)" r="60"/>
    <g>
      <path d="M42.51,59.81c-1.53,1.25-4.18,1.39-6.42,0.44c-2.66-1.14-3.87-2.9-3.91-5.65 c-0.04-3.41,2.8-7.05,8.42-7.41c9.26-0.59,12.82,7.71,12.92,8.02c0.22,0.65-0.1,1.58-1.95,0.12c-5.63-4.45-7.65-3.71-7.65-3.71 S47.16,55.99,42.51,59.81z" fill="#5D4037"/>
      <path d="M84.74,59.81c-1.53,1.25-4.18,1.39-6.42,0.44c-2.66-1.14-3.87-2.9-3.91-5.65 c-0.04-3.41,2.8-7.05,8.42-7.41c9.26-0.59,12.82,7.71,12.92,8.02c0.22,0.65-0.1,1.58-1.95,0.12c-5.63-4.45-7.65-3.71-7.65-3.71 S89.39,55.99,84.74,59.81z" fill="#5D4037"/>
    </g>
    <path d="M58.4,72.22c-1.44-1.62-0.11-2.46,1.47-1.98c2,0.61,5.2,0.32,6.02-1.48 c1.58-3.46-0.39-5.41-2.84-11.39c-2.56-6.25,0.65-13.06,4.35-13.41c2.97-0.28,1.98,1.27,1.05,1.93c-1.82,1.3-3.73,5.6-0.8,10.42 c4.99,8.19,5.4,12.12,2.42,15.98C68.22,74.69,62.46,76.78,58.4,72.22z" fill="#E2B013"/>
    <g>
      <path d="M80.04,77.94l-0.12-0.07c-0.6-0.36-1.39-0.29-1.92,0.16c-1.57,1.34-8.08,3.82-14.01,3.94 c-5.93-0.12-12.44-2.6-14.01-3.94c-0.53-0.45-1.31-0.53-1.92-0.16l-0.12,0.07c-0.76,0.46-0.9,1.4-0.37,2.08 c2.06,2.58,7.52,6.46,16.41,6.59c8.89-0.12,14.34-4.01,16.41-6.59C80.95,79.34,80.8,78.4,80.04,77.94z" fill="#5D4037"/>
      <path d="M61.8,93.24c-0.72,0.21-1.57,0.75-1.39,1.48c0.06,0.24,0.22,0.43,0.4,0.6 c0.57,0.52,1.31,0.82,2.05,1.01c2.09,0.53,4.35,0.15,6.25-0.85c1.94-1.02,4.57-3.19,3.8-4.83c-0.62-1.33-3.01,0.52-3.94,0.91 C66.66,92.53,64.2,92.55,61.8,93.24z" fill="#FFCB38"/>
    </g>
    <g>
      <radialGradient id="SVGID_2_" cx="87.7647" cy="63.3666" gradientTransform="matrix(0.9201 -0.3918 0.3131 0.7354 -12.8273 51.15)" gradientUnits="userSpaceOnUse" r="16.3698">
        <stop offset="0" stop-color="#FBC02D"/>
        <stop offset="1" stop-color="#FBC02D" stop-opacity="0"/>
      </radialGradient>
      <path d="M78.44,73.44c1.55,3.75,7.63,4.79,13.58,2.32c5.95-2.46,9.52-7.5,7.97-11.24 c-1.55-3.75-7.63-4.79-13.58-2.32C80.46,64.66,76.89,69.7,78.44,73.44z" fill="url(#SVGID_2_)"/>
      <radialGradient id="SVGID_3_" cx="-2353.0198" cy="63.6501" gradientTransform="matrix(-0.9201 -0.3918 -0.3131 0.7354 -2108.6545 -905.011)" gradientUnits="userSpaceOnUse" r="16.1348">
        <stop offset="0" stop-color="#FBC02D"/>
        <stop offset="1" stop-color="#FBC02D" stop-opacity="0"/>
      </radialGradient>
      <path d="M45.3,73.44c-1.55,3.75-7.63,4.79-13.58,2.32c-5.95-2.46-9.52-7.5-7.97-11.24 c1.55-3.75,7.63-4.79,13.58-2.32C43.28,64.66,46.85,69.7,45.3,73.44z" fill="url(#SVGID_3_)"/>
    </g>
  </g>
</svg>

<svg viewBox="0 0 128 128" xmlns="http://www.w3.org/2000/svg">
  <defs>
    <radialGradient id="SVGID_1_" cx="63.5497" cy="56.074" gradientUnits="userSpaceOnUse" r="68.6716">
      <stop offset="0.2994" stop-color="#FFF7B3"/>
      <stop offset="0.3995" stop-color="#FFF5A9"/>
      <stop offset="0.5678" stop-color="#FFF08F"/>
      <stop offset="0.7823" stop-color="#FFE865"/>
      <stop offset="0.8426" stop-color="#FFE558"/>
      <stop offset="1" stop-color="#FBC02D"/>
    </radialGradient>
    <radialGradient id="SVGID_2_" cx="55.927077" cy="115.958413" gradientTransform="matrix(0.9201 -0.3918 0.3131 0.7354 0 0)" gradientUnits="userSpaceOnUse" r="16.3698">
      <stop offset="0" stop-color="#FBC02D"/>
      <stop offset="1" stop-color="#FBC02D" stop-opacity="0"/>
    </radialGradient>
    <radialGradient id="SVGID_3_" cx="-58.473241" cy="55.480861" gradientTransform="matrix(-0.9201 -0.3918 -0.3131 0.7354 0 0)" gradientUnits="userSpaceOnUse" r="16.1348">
      <stop offset="0" stop-color="#FBC02D"/>
      <stop offset="1" stop-color="#FBC02D" stop-opacity="0"/>
    </radialGradient>
  </defs>
  <path d="M124,64 A60 60 0 1 1 4,64 A60 60 0 1 1 124,64 Z" fill="url(#SVGID_1_)"/>
  <path d="M42.51,59.81 C40.98,61.06 38.33,61.2 36.09,60.25 C33.43,59.11 32.22,57.35 32.18,54.6 C32.14,51.19 34.98,47.55 40.6,47.19 C49.86,46.6 53.42,54.9 53.52,55.21 C53.74,55.86 53.42,56.79 51.57,55.33 C45.94,50.88 43.92,51.62 43.92,51.62 C43.92,51.62 47.16,55.99 42.51,59.81 Z" fill="#5D4037"/>
  <path d="M84.74,59.81 C83.21,61.06 80.56,61.2 78.32,60.25 C75.66,59.11 74.45,57.35 74.41,54.6 C74.37,51.19 77.21,47.55 82.83,47.19 C92.09,46.6 95.65,54.9 95.75,55.21 C95.97,55.86 95.65,56.79 93.8,55.33 C88.17,50.88 86.15,51.62 86.15,51.62 C86.15,51.62 89.39,55.99 84.74,59.81 Z" fill="#5D4037"/>
  <path d="M58.4,72.22 C56.96,70.6 58.29,69.76 59.87,70.24 C61.87,70.85 65.07,70.56 65.89,68.76 C67.47,65.3 65.5,63.35 63.05,57.37 C60.49,51.12 63.7,44.31 67.4,43.96 C70.37,43.68 69.38,45.23 68.45,45.89 C66.63,47.19 64.72,51.49 67.65,56.31 C72.64,64.5 73.05,68.43 70.07,72.29 C68.22,74.69 62.46,76.78 58.4,72.22 Z" fill="#E2B013"/>
  <path d="M80.04,77.94 L79.92,77.87 C79.32,77.51 78.53,77.58 78,78.03 C76.43,79.37 69.92,81.85 63.99,81.97 C58.06,81.85 51.55,79.37 49.98,78.03 C49.45,77.58 48.67,77.5 48.06,77.87 L47.94,77.94 C47.18,78.4 47.04,79.34 47.57,80.02 C49.63,82.6 55.09,86.48 63.98,86.61 C72.87,86.49 78.32,82.6 80.39,80.02 C80.95,79.34 80.8,78.4 80.04,77.94 Z" fill="#5D4037"/>
  <path d="M61.8,93.24 C61.08,93.45 60.23,93.99 60.41,94.72 C60.47,94.96 60.63,95.15 60.81,95.32 C61.38,95.84 62.12,96.14 62.86,96.33 C64.95,96.86 67.21,96.48 69.11,95.48 C71.05,94.46 73.68,92.29 72.91,90.65 C72.29,89.32 69.9,91.17 68.97,91.56 C66.66,92.53 64.2,92.55 61.8,93.24 Z" fill="#FFCB38"/>
  <path d="M78.44,73.44 C79.99,77.19 86.07,78.23 92.02,75.76 C97.97,73.3 101.54,68.26 99.99,64.52 C98.44,60.77 92.36,59.73 86.41,62.2 C80.46,64.66 76.89,69.7 78.44,73.44 Z" fill="url(#SVGID_2_)"/>
  <path d="M45.3,73.44 C43.75,77.19 37.67,78.23 31.72,75.76 C25.77,73.3 22.2,68.26 23.75,64.52 C25.3,60.77 31.38,59.73 37.33,62.2 C43.28,64.66 46.85,69.7 45.3,73.44 Z" fill="url(#SVGID_3_)"/>
</svg>
